assets/img/components/table-header.svg

<svg width="580" height="145" viewBox="0 0 580 145" fill="none" xmlns="http://www.w3.org/2000/svg">
<path d="M145 145V39.875C145 17.8525 162.651 0.000212686 184.424 0L395.576 0C417.349 0.000212686 435 17.8525 435 39.875V145L145 145Z" fill="#286AD8"/>
<path d="M434.5 145C525.5 145 579.5 90.5 579.5 0C487 0 434.5 52 434.5 145Z" fill="#286AD8"/>
<g style="mix-blend-mode:multiply" opacity="0.4">
<path d="M426.145 145H189.664L173.218 128.556H346.542C348.199 128.556 349.437 127.213 349.437 125.556V68.8818L426.145 145Z" fill="#1545BB"/>
</g>
<path d="M171.579 69.3262C171.579 67.6693 172.922 66.3262 174.579 66.3262H346.432C348.088 66.3262 349.432 67.6693 349.432 69.3262V125.849C349.432 127.506 348.088 128.849 346.432 128.849H174.579C172.922 128.849 171.579 127.506 171.579 125.849V69.3262Z" fill="#5187DF"/>
<path d="M145 0C64.9792 0 0.109528 64.9062 0.109528 144.972L0 145H145V0Z" fill="#286AD8"/>
<g style="mix-blend-mode:multiply" opacity="0.4">
<path d="M180.294 58.0874C180.294 56.6876 181.429 55.5527 182.829 55.5527H255.435C256.835 55.5527 257.97 56.6876 257.97 58.0874C257.97 59.4873 256.835 60.6222 255.435 60.6222H182.829C181.429 60.6222 180.294 59.4873 180.294 58.0874Z" fill="#286AD8"/>
</g>
<path d="M230.863 66.3262L230.863 128.427" stroke="#1D56CD" stroke-width="1.5"/>
<path d="M290.146 66.3262L290.146 128.427" stroke="#1D56CD" stroke-width="1.5"/>
<rect x="172.329" y="67.0762" width="176.353" height="61.023" rx="2.25" stroke="#1D56CD" stroke-width="1.5"/>
<path d="M171.579 87.0264L349.432 87.0264" stroke="#1D56CD" stroke-width="1.5"/>
<path d="M171.579 107.727L349.432 107.727" stroke="#1D56CD" stroke-width="1.5"/>
<path d="M298.3 118.102C298.3 116.957 299.228 116.028 300.373 116.028H330.455C331.6 116.028 332.529 116.957 332.529 118.102C332.529 119.247 331.6 120.175 330.455 120.175H300.373C299.228 120.175 298.3 119.247 298.3 118.102Z" fill="#194BC1"/>
<path d="M180.294 77.4964C180.294 76.3512 181.222 75.4229 182.367 75.4229H219.565C220.711 75.4229 221.639 76.3512 221.639 77.4964C221.639 78.6416 220.711 79.5699 219.565 79.5699H182.367C181.222 79.5699 180.294 78.6416 180.294 77.4964Z" fill="#194BC1"/>
<path d="M180.294 97.5882C180.294 96.443 181.222 95.5146 182.367 95.5146H203.143C204.289 95.5146 205.217 96.443 205.217 97.5882C205.217 98.7333 204.289 99.6617 203.143 99.6617H182.367C181.222 99.6617 180.294 98.7333 180.294 97.5882Z" fill="#194BC1"/>
<path d="M298.3 77.4964C298.3 76.3512 299.228 75.4229 300.373 75.4229H332.502C333.647 75.4229 334.575 76.3512 334.575 77.4964C334.575 78.6416 333.647 79.5699 332.502 79.5699H300.373C299.228 79.5699 298.3 78.6416 298.3 77.4964Z" fill="#194BC1"/>
<path d="M298.3 97.5882C298.3 96.443 299.228 95.5146 300.373 95.5146H338.047C339.192 95.5146 340.121 96.443 340.121 97.5882C340.121 98.7333 339.192 99.6617 338.047 99.6617H300.373C299.228 99.6617 298.3 98.7333 298.3 97.5882Z" fill="#194BC1"/>
<path d="M239.016 77.4964C239.016 76.3512 239.944 75.4229 241.089 75.4229H268.105C269.25 75.4229 270.178 76.3512 270.178 77.4964C270.178 78.6416 269.25 79.5699 268.105 79.5699H241.089C239.944 79.5699 239.016 78.6416 239.016 77.4964Z" fill="#194BC1"/>
<path d="M239.016 97.5882C239.016 96.443 239.944 95.5146 241.089 95.5146H273.429C274.574 95.5146 275.502 96.443 275.502 97.5882C275.502 98.7333 274.574 99.6617 273.429 99.6617H241.089C239.944 99.6617 239.016 98.7333 239.016 97.5882Z" fill="#194BC1"/>
<path d="M180.294 118.102C180.294 116.957 181.222 116.028 182.367 116.028H212.449C213.594 116.028 214.523 116.957 214.523 118.102C214.523 119.247 213.594 120.175 212.449 120.175H182.367C181.222 120.175 180.294 119.247 180.294 118.102Z" fill="#194BC1"/>
<path d="M239.016 118.102C239.016 116.957 239.944 116.028 241.089 116.028H263.313C264.458 116.028 265.386 116.957 265.386 118.102C265.386 119.247 264.458 120.175 263.313 120.175H241.089C239.944 120.175 239.016 119.247 239.016 118.102Z" fill="#194BC1"/>
</svg>

<svg xmlns="http://www.w3.org/2000/svg" width="580" height="145" fill="none" viewBox="0 0 580 145"><path fill="#286ad8" d="M145 145V39.875C145 17.853 162.651 0 184.424 0h211.152C417.349 0 435 17.853 435 39.875V145z"/><path fill="#286ad8" d="M434.5 145c91 0 145-54.5 145-145-92.5 0-145 52-145 145"/><path fill="#1545bb" d="M426.145 145H189.664l-16.446-16.444h173.324c1.657 0 2.895-1.343 2.895-3V68.882z" opacity=".4" style="mix-blend-mode:multiply"/><path fill="#5187df" d="M171.579 69.326a3 3 0 0 1 3-3h171.853a3 3 0 0 1 3 3v56.523a3 3 0 0 1-3 3H174.579a3 3 0 0 1-3-3z"/><path fill="#286ad8" d="M145 0C64.98 0 .11 64.906.11 144.972L0 145h145z"/><path fill="#286ad8" d="M180.294 58.087c0-1.4 1.135-2.534 2.535-2.534h72.606a2.535 2.535 0 1 1 0 5.07h-72.606a2.535 2.535 0 0 1-2.535-2.536" opacity=".4" style="mix-blend-mode:multiply"/><path stroke="#1d56cd" stroke-width="1.5" d="M230.863 66.326v62.101M290.146 66.326v62.101"/><rect width="176.353" height="61.023" x="172.329" y="67.076" stroke="#1d56cd" stroke-width="1.5" rx="2.25"/><path stroke="#1d56cd" stroke-width="1.5" d="M171.579 87.026h177.853M171.579 107.727h177.853"/><path fill="#194bc1" d="M298.3 118.102c0-1.145.928-2.074 2.073-2.074h30.082a2.075 2.075 0 0 1 0 4.147h-30.082a2.073 2.073 0 0 1-2.073-2.073M180.294 77.496c0-1.145.928-2.073 2.073-2.073h37.198a2.073 2.073 0 1 1 0 4.147h-37.198a2.073 2.073 0 0 1-2.073-2.074M180.294 97.588c0-1.145.928-2.073 2.073-2.073h20.776a2.073 2.073 0 1 1 0 4.147h-20.776a2.073 2.073 0 0 1-2.073-2.074M298.3 77.496c0-1.145.928-2.073 2.073-2.073h32.129a2.073 2.073 0 0 1 0 4.147h-32.129a2.073 2.073 0 0 1-2.073-2.074M298.3 97.588c0-1.145.928-2.073 2.073-2.073h37.674a2.074 2.074 0 0 1 0 4.147h-37.674a2.073 2.073 0 0 1-2.073-2.074M239.016 77.496c0-1.145.928-2.073 2.073-2.073h27.016a2.073 2.073 0 0 1 0 4.147h-27.016a2.073 2.073 0 0 1-2.073-2.074M239.016 97.588c0-1.145.928-2.073 2.073-2.073h32.34a2.073 2.073 0 0 1 0 4.147h-32.34a2.073 2.073 0 0 1-2.073-2.074M180.294 118.102c0-1.145.928-2.074 2.073-2.074h30.082a2.075 2.075 0 0 1 0 4.147h-30.082a2.073 2.073 0 0 1-2.073-2.073M239.016 118.102c0-1.145.928-2.074 2.073-2.074h22.224a2.074 2.074 0 0 1 0 4.147h-22.224a2.073 2.073 0 0 1-2.073-2.073"/></svg>
